X:228
T:The Microburst Reel
R:reel
C:Bruce Osborne - Dec. 2002
Z:abc by bosborne@kos.net
M:2/4
L:1/8
K:Cmaj
c/B/|cG G/A/G/F/|EC C/E/G/c/|BB/c/ d/B/G/B/|c/B/c/d/ ec/B/|\
cG G/A/G/F/|EC C/E/G/c/|BB/c/ d/B/G/B/|c/B/c/d/ c:|
|:e/f/|gg/a/ g/e/c/e/|g/f/g/a/ g/e/c/e/|ff/g/ f/e/d/e/|f/e/f/g/ fe/f/|\
gg/a/ g/e/c/e/|g/f/g/a/ g/e/c/e/|ff/g/ f/d/B/d/|c/B/c/d/ c:|
